X: 22617
T: Lady's Cup Of Tea, The
R: reel
M: 4/4
K: Dmixolydian
|A2dA cAGE|ABAG E~G3|(3.A.c.A dA cAGE|~A3 G EDDG|
A2dA cAGE|ABAG E~G3|(3.A.c.A dA cAGE|ABAG EDDe||
edcd e ~g3|e ~a3 e~g3|edcd e~g3|.a.e.g.e d3e|
edcd e ~g3|e ~a3 e~g3|edcd e~g3|.a.e.g.e (3.g.f.e dc||

